X:6
T:Polska från Närke
T:Svenska Folkdansar H1 nr 6
O:Närke
B:Traditioner av Svenska Folkdansar Häfte 1, nr 6
R:Polska
Z:Nils L
U:V = wedge
M:3/4
L:1/8
K:Am
VA2 A^G A^c | Vd2 (d>e) d2 | Vc2 cA c_B | G2 F>G A2 |
A2 A^G A^c | ^c2 d4 | =c2 cA c_B | G2 A4 :|

